X:1
T: Hideaway
N:
C:
S:Tune is "Ron and Dale's Highland Hideaway"
A:
O:
R:
M:4/4
K:Am
I:speed 220
%W: A
% voice 1 (1 lines, 38 notes)
K:Am
M:4/4
L:1/16
E4 |E4 A4 A4 A4 |^G2 A2 B4 G4 E4 |E4 c4 c4 c4 |B2 c2 d4 B4 E4 |E4 e4 e4 e4 |d2 e2 f4 d4 B4 |e4 c4 d2 c2 B2 A2 |^G4 E4 z4 E4 |
%W:
% voice 1 (1 lines, 37 notes)
E4 A4 A4 A4 |^G2 A2 B4 G4 E4 |E4 c4 c4 c4 |B2 c2 d4 B4 E4 |E4 e4 e4 e4 |d2 e2 f4 d4 B4 |e4 c4 d2 c2 B2 A2 |^G4 E4 z4 E4 |
%W: B
% voice 1 (1 lines, 32 notes)
E4 ^G4 B4 d4 |c4 A4 z4 A4 |G4 B4 d4 f4 |e4 c4 z4 c4 |d4 e4 f4 d4 |c4 e4 a4 c4 |d4 c4 B4 A4 |^G4 E4 z4 E4 |
%W:
% voice 1 (1 lines, 20 notes)
E4 ^G4 B4 d4 |c4 A4 z4 A4 |G4 B4 d4 f4 |e4 c4 z4 c4 |B4 ^d4 ^f4 a4 |
%W:
% voice 1 (1 lines, 25 notes)
^g4 e4 a8|a2 g2 f2 e2 f2 e2 d2 c2 |d2 c2 B2 A2 B4 c2 d2 |e4 c4 E4 ^G4 |A4 A,4 z4 ||
